!!!COM:	Ockeghem, Johannes
!!!CDT:	~1425-1497/02/06
!!!OPR:	Missa De plus en plus
!!!ONM:	1
!!!OTL:	Kyrie
!!!AGN:	Mass; Kyrie
!!!SCT:	Ock1005a
!!!voices:	4
!!!voices-OPR:	4
**kern	**kern	**kern	**kern
*staff4	*staff3	*staff2	*staff1
*Ivox	*Ivox	*Ivox	*Ivox
*I"Bassus	*I"Tenor	*I"Altus	*I"Superius
*I'B	*I'T	*I'A	*I'S
*clefF4	*clefGv2	*clefGv2	*clefG2
*>[A,B,C]	*>[A,B,C]	*>[A,B,C]	*>[A,B,C]
*>Kyrie1[A]	*>Kyrie1[A]	*>Kyrie1[A]	*>Kyrie1[A]
*>Christus[B]	*>Christus[B]	*>Christus[B]	*>Christus[B]
*>Kyrie2[C]	*>Kyrie2[C]	*>Kyrie2[C]	*>Kyrie2[C]
*>A	*>A	*>A	*>A
*k[]	*k[]	*k[]	*k[]
*M3/1	*M3/1	*M3/1	*M3/1
*met(O)	*met(O)	*met(O)	*met(O)
=1-	=1-	=1-	=1-
!!section: Kyrie I
!!!OMD: Kyrie I
[0.G	0.G	[0.d	1.g
.	.	.	2a/
.	.	.	1b
=2	=2	=2	=2
0.G]	0.B	1d]	1b
.	.	1.g	1.dd
.	.	4f\	2cc\
.	.	4e\	.
=3	=3	=3	=3
0.A	0.c	0.e	1.cc
.	.	.	2b\
.	.	.	2a/
.	.	.	2g/
=4	=4	=4	=4
0c	0.e	1r	1a
.	.	0c	1g
1A	.	.	1cc
=5	=5	=5	=5
2r	1.d	1d	2b\
1D	.	.	2a/
.	.	2A/	2f/
1E	2B\	1G	2g/
.	2c\	.	2e/
2F\	2d\	2A/	2d/
=6	=6	=6	=6
0G	2G/	2B-i\	2.b-\
.	1d	2G/	.
.	.	.	8a/L
.	.	.	8b-i/J
.	.	0d	4a/
.	.	.	4g/
.	2B\	.	1g
1D	1A	.	.
.	.	.	2f#i/
=7	=7	=7	=7
!!linebreak:original
0GG	1.G	1d	0.g
.	.	1B	.
.	1E	.	.
2C/	.	2c\	.
2BB/	2D/	[2d\	.
=8	=8	=8	=8
2GG/	2.G/	2d\]	1r
1G	.	1B	.
.	4A/	.	.
.	2B\	.	1r
2E\	2c\	2G/	.
1D	2d\	2A/	2.f/
.	2B\	2F/	.
.	.	.	4g/
=9	=9	=9	=9
0.C	0.c	2G/	2e/
.	.	2r	1a
.	.	1E	.
.	.	.	1g
.	.	1G	.
.	.	.	2e/
=10	=10	=10	=10
0.r	1c	1A	4f/
.	.	.	4e/
.	.	.	4d/
.	.	.	4c/
.	2d\	1G	2B/
.	2e\	.	2c/
.	4f\	1F	1A
.	4e\	.	.
.	4d\	.	.
.	4c\	.	.
=11	=11	=11	=11
1E	1B	2r	1G
.	.	1G	.
2C/	2c\	.	1g
2BB/	1d	2.G/	.
1AA	.	.	1a
.	.	4E/	.
.	2c\	2F#i/	.
=12	=12	=12	=12
1GG	2B\	1G	1b
.	1G	.	.
1G	.	2.B\	2g/
.	2B\	.	1g
.	.	4c\	.
2D\	1A	1d	.
2F\	.	.	2f/
=13	=13	=13	=13
2E\	2G/	1e	1g
2C/	2E/	.	.
2r	2F/	2d\	2a/
1C	2.G/	2e\	2g/
.	.	1c	2.e/
.	4F/	.	.
[2AA/	[2A/	.	.
.	.	.	4d/
=14	=14	=14	=14
!!linebreak:original
2AA/]	2A/]	2.c\	2f/
1C	2G/	.	2.e/
.	.	4B\	.
.	2E/	2.G/	.
.	.	.	4c/
1F	2F/	.	1c
.	.	4A/	.
.	1D	1F	.
2D\	.	.	2B/
=15	=15	=15	=15
1.E	0.Cl	0.Gl	0.cl
2C/	.	.	.
1Cl	.	.	.
!!LO:LB:i:g=z
=16||	=16||	=16||	=16||
*>B	*>B	*>B	*>B
!!section: Christe
!!!OMD: Christe
*k[]	*k[]	*k[]	*k[]
*M3/1	*M3/1	*M3/1	*M3/1
*met(O)	*met(O)	*met(O)	*met(O)
0C	0.c	0e	1.g
.	.	.	2a/
1C	.	1c	2g/
.	.	.	2e/
=17	=17	=17	=17
1G	1B	1d	2d/
.	.	.	1g
2E\	2G/	2c\	.
2.D\	2A/	1d	2f/
.	2B\	.	2g/
4G\	.	.	.
2F\	2c\	[2A/	2a/
=18	=18	=18	=18
1D	1d	1A]	1f
0GG	2B\	2G/	1g
.	2G/	2D/	.
.	2D/	[1d	1r
.	[2G/	.	.
=19	=19	=19	=19
2r	4G/]	1d]	0.r
.	4A/	.	.
1GG	2B\	.	.
.	4c\	1r	.
.	4B\	.	.
2BB/	4A/	.	.
.	4G/	.	.
1AA	2.F#i/	1c	.
.	4E/	.	.
=20	=20	=20	=20
1GG	1.G	1.B	1d
1r	.	.	1e
.	1A	1c	.
1r	.	.	1f
.	4G/	2d\	.
.	4F/	.	.
=21	=21	=21	=21
!!pagebreak:original
0.r	1E	1e	1g
.	1D	1f	1a
.	1r	1g	1b
=22	=22	=22	=22
0.r	0d	2r	1a
.	.	1f	.
.	.	.	1.dd
.	.	2d\	.
.	1B	2.d\	.
.	.	.	2cc\
.	.	4c\	.
=23	=23	=23	=23
0.r	1c	1A	1.cc
.	0d	0G	.
.	.	.	2a/
.	.	.	1b
=24	=24	=24	=24
0C	1.c	1g	1cc
.	.	2e\	2a/
.	4B\	2c\	1g
.	4A/	.	.
1r	2.G/	1B	.
.	.	.	2d/
.	4F/	.	.
=25	=25	=25	=25
2C/	2G/	1c	2e/
2AA/	2A/	.	2f/
2BB/	2G/	2B\	1g
2C/	2E/	2G/	.
1D	1D	2r	2f/
.	.	[2d\	[2a/
=26	=26	=26	=26
1D	2r	2d\]	4a/]
.	.	.	4b-i\
.	2F/	2A/	4a/
.	.	.	4g/
1AA	2C/	2.c\	2e/
.	2F/	.	2a/
.	.	4A/	.
1r	2G/	2B\	4g/
.	.	.	2g/
.	[2B-\	[2d\	.
.	.	.	4f/
=27	=27	=27	=27
0.r	2B-\]	2d\]	4e/
.	.	.	4d/
.	2A/	2c\	2e/
.	2F/	2A/	2f/
.	2G/	2B\	1d
.	1E	1G	.
.	.	.	2c#i/
=28	=28	=28	=28
!!linebreak:original
0.Dl	0.Dl	0.Al	0.dl
!!LO:LB:i:g=z
=29||	=29||	=29||	=29||
*>C	*>C	*>C	*>C
!!section: Kyrie II
!!!OMD: Kyrie II
*k[]	*k[]	*k[]	*k[]
*M3/1	*M3/1	*M3/1	*M3/1
*met(O)	*met(O)	*met(O)	*met(O)
1C	1r	1c	0g
2BB/	1r	2d\	.
1C	.	2e\	.
.	2G/	2c\	2e/
2D\	2F/	2A/	[2d/
=30	=30	=30	=30
0GG	2G/	2.B\	2d/]
.	2E/	.	2.g/
.	.	4c\	.
.	2D/	2d\	.
.	.	.	4a/
.	1G	2B\	2g/
1AA	.	1A	1cc
.	2F#i/	.	.
=31	=31	=31	=31
1GG	1G	2r	0b
.	.	1d	.
1G	2r	.	.
.	2G/	2G/	.
1F	2c\	1A	1a
.	2d\	.	.
=32	=32	=32	=32
1E	1e	2B\	2g/
.	.	0G	2.b\
1r	2d\	.	.
.	.	.	4cc\
.	2.B\	.	2dd\
2E\	.	.	2g/
.	4c\	.	.
2D\	2d\	2F/	[2b\
=33	=33	=33	=33
1.G	2G/	1G	2b\]
.	1B	.	2g/
.	.	1r	2d/
2C/	2c\	.	1g
1D	1A	1d	.
.	.	.	2f#i/
=34	=34	=34	=34
0GG	1.G	1e	2.g/
.	.	.	4a/
.	.	1d	2b\
.	2A/	.	2cc\
1r	2B\	2G/	2dd\
.	2c\	2F/	2g/
=35	=35	=35	=35
!!linebreak:original
1r	2d\	2D/	2f/
.	1G	1B-	1e
2r	.	.	.
2D\	2F/	2A/	1d
1E	1E	1G	.
.	.	.	2c#i/
=36	=36	=36	=36
2.F\	1D	2.A/	1d
8E\L	.	4B\	.
8D\J	.	.	.
1C	1r	1c	1e
1D	1D	1B	2.f/
.	.	.	8e/L
.	.	.	8d/J
=37	=37	=37	=37
0AA	1.E	0A	0c
.	1F	.	.
1A	.	1r	1d
.	2E/	.	.
=38	=38	=38	=38
1G	2C/	2c\	1e
.	2G/	2B\	.
1F	2A/	2A/	1f
.	2D/	1d	.
1G	1E	.	1r
.	.	2c#i\	.
=39	=39	=39	=39
2A\	0.D	2.d\	2.f/
2B\	.	.	.
.	.	4e\	4g/
2A\	.	1.f	2a/
1d	.	.	1b-i
2c\	.	[2e\	[2a/
=40	=40	=40	=40
2B\	1r	4e\]	4a/]
.	.	4d\	4g/
2G\	.	1d	1g
1A	1r	.	.
.	.	2c\	2f#i/
1G	1d	[1B	1g
=41	=41	=41	=41
1r	1.G	1B]	2e/
.	.	.	2d/
1C	.	1c	1g
.	1c	.	.
1C	.	[1G	2.e/
.	4B\	.	.
.	4A/	.	4f/
=42	=42	=42	=42
!!linebreak:original
2BB/	2B\	0G]	2d/
2C/	2e\	.	2c/
2GG/	2d\	.	2B/
2C/	1c	.	2c/
1G	.	1r	1d
.	2B\	.	.
=43	=43	=43	=43
2r	[0.c	1A	1c
1A	.	.	.
.	.	2.c\	1r
4G\	.	.	.
4F\	.	4d\	.
1E	.	1e	1g
=44	=44	=44	=44
1F	1c]	1A	1a
0C	0e	0G	1.cc
.	.	.	4b\
.	.	.	4a/
=45	=45	=45	=45
0G	1d	1r	2.b\
.	.	.	4cc\
.	1B	1.G	1dd
2E\	2.c\	.	2g/
2D\	.	2F/	2a/
.	4d\	.	.
=46	=46	=46	=46
2C/	2e\	1G	2cc\
1G	2d\	.	2.b\
.	2B\	1r	.
.	.	.	4g/
2C/	2c\	.	1g
1D	1A	1d	.
.	.	.	2f#i/
=47	=47	=47	=47
[0.GGl	[0.Gl	2d\	[0.gl
.	.	1B	.
.	.	2c\	.
.	.	1d	.
=48	=48	=48	=48
0.GG]	0.G]	0.dl	0.g]
==	==	==	==
*-	*-	*-	*-
!!!RDF**kern: l=long note in original notation
!!!RDF**kern: i=editorial accidental
!!!ENC:	Will Watson 11/1/2012
!!!END:	2012/01/11/
!!!EED:	Jesse Rodin
!!!EEV:	2012/03/12/
!!!ONB:	Translated from MusicXML and edited on 2012/03/12/ by Craig Sapp
!!muse2ps: T^@{OPR}^u^@{ONM}{. }@{OTL}^C^@{COM}^i2I100v85,90,85,150Q16
